Vector/symbolic/apps/preferences-system-notifications-symbolic.svg

<svg width="16" height="16" version="1.1" xmlns="http://www.w3.org/2000/svg">
 <path d="m7.7207 3c0.17 0.47 0.2793 0.97 0.2793 1.5 0 0.16915-0.010767 0.33549-0.029297 0.5h5.0293v6h-10v-2.0312c-0.73515-0.084046-1.4113-0.34742-2-0.74805v3.7793c0 0.55 0.45 1 1 1h7l2 2 2-2h1c0.55 0 1-0.45 1-1v-8c0-0.55-0.45-1-1-1h-6.2793z" fill="#555555"/>
 <path d="M3.5 1C1.57 1 0 2.57 0 4.5S1.57 8 3.5 8 7 6.43 7 4.5 5.43 1 3.5 1zM3 2h1v3H3zm0 4h1v1H3z" fill="#555555"/>
</svg>

<svg xmlns="http://www.w3.org/2000/svg" width="16" height="16" version="1.1">
 <path style="opacity:.35;fill:#444444" d="M 7.72,3 C 7.89,3.47 8,3.97 8,4.5 8,6.97 5.97,9 3.5,9 2.57,9 1.72,8.71 1,8.22 V 12 C 1,12.55 1.45,13 2,13 H 9 L 11,15 13,13 H 14 C 14.55,13 15,12.55 15,12 V 4 C 15,3.45 14.55,3 14,3 Z"/>
 <path style="fill:#444444" d="M 3.5,1 C 1.57,1 0,2.57 0,4.5 0,6.43 1.57,8 3.5,8 5.43,8 7,6.43 7,4.5 7,2.57 5.43,1 3.5,1 Z M 3,2 H 4 V 5 H 3 Z M 3,6 H 4 V 7 H 3 Z"/>
</svg>
